2 Export/Icons/Brands/Pocket.svg

<svg xmlns="http://www.w3.org/2000/svg" xmlns:xlink="http://www.w3.org/1999/xlink" width="24" height="24" viewBox="0 0 24 24">
  <defs>
    <path id="pocket-a" d="M17.10975,10.7365 L12.87525,14.80075 C12.63525,15.0295 12.32775,15.14425 12.0195,15.14425 C11.712,15.14425 11.40375,15.0295 11.16375,14.80075 L6.92925,10.7365 C6.4365,10.2655 6.4215,9.48325 6.8925,8.992 C7.365,8.49925 8.14575,8.48275 8.63625,8.9545 L12.0195,12.196 L15.40725,8.9545 C15.90225,8.48125 16.68,8.49925 17.15175,8.99125 C17.625,9.475 17.613,10.2625 17.118,10.73575 L17.10975,10.7365 Z M20.922,5.077 C20.69775,4.4335 20.07825,4 19.39125,4 L4.63425,4 C3.95925,4 3.3465,4.423 3.1065,5.05375 C3.036,5.24125 3,5.437 3,5.63425 L3,11.068 L3.063,12.14875 C3.324,14.6065 4.59825,16.75525 6.5745,18.253 C6.60825,18.28 6.645,18.3055 6.68175,18.33175 L6.70425,18.349 C7.7625,19.1215 8.946,19.645 10.22475,19.903 C10.81425,20.0215 11.418,20.083 12.0165,20.083 C12.57075,20.083 13.12725,20.03275 13.67325,19.93 C13.73925,19.90825 13.80525,19.89625 13.87125,19.885 C13.8885,19.885 13.908,19.87375 13.92675,19.86325 C15.1515,19.59325 16.28775,19.08625 17.30775,18.3445 L17.3295,18.32125 L17.43075,18.2425 C19.401,16.74625 20.67375,14.596 20.94525,12.1315 L21,11.05075 L21,5.626 C21,5.43775 20.97675,5.251 20.90925,5.0695 L20.922,5.077 Z"/>
  </defs>
  <g fill="none" fill-rule="evenodd">
    <polygon points="0 0 24 0 24 24 0 24"/>
    <mask id="pocket-b" fill="#fff">
      <use xlink:href="#pocket-a"/>
    </mask>
    <use fill="#000" xlink:href="#pocket-a"/>
    <g fill="#000" mask="url(#pocket-b)">
      <rect width="24" height="24"/>
    </g>
  </g>
</svg>

<svg xmlns="http://www.w3.org/2000/svg" xmlns:xlink="http://www.w3.org/1999/xlink" width="24" height="24" viewBox="0 0 24 24">
  <defs>
    <path id="pocket-a" d="M17.11 10.736l-4.235 4.065a1.237 1.237 0 0 1-1.711 0l-4.235-4.065a1.234 1.234 0 0 1 1.707-1.782l3.384 3.242 3.387-3.242a1.232 1.232 0 0 1 1.745.037 1.23 1.23 0 0 1-.034 1.745h-.008zm3.812-5.659A1.622 1.622 0 0 0 19.392 4H4.633c-.675 0-1.288.423-1.528 1.054-.07.187-.106.383-.106.58v5.434l.063 1.08c.261 2.459 1.535 4.607 3.511 6.105.034.027.071.052.108.079l.022.017a8.924 8.924 0 0 0 3.52 1.554 8.972 8.972 0 0 0 3.448.027c.067-.022.133-.034.2-.045.017 0 .036-.011.055-.022a9.002 9.002 0 0 0 3.38-1.518l.023-.024.1-.079c1.971-1.496 3.244-3.646 3.515-6.11L21 11.05V5.626c0-.188-.023-.375-.09-.557l.012.008z"/>
  </defs>
  <g fill="none" fill-rule="evenodd">
    <polygon points="0 0 24 0 24 24 0 24"/>
    <mask id="pocket-b" fill="#fff">
      <use xlink:href="#pocket-a"/>
    </mask>
    <use fill="#000" xlink:href="#pocket-a"/>
    <g fill="#000" mask="url(#pocket-b)">
      <rect width="24" height="24"/>
    </g>
  </g>
</svg>
